src/assets/icons/icon-idea.svg

<svg width="542" height="530" fill="none" xmlns="http://www.w3.org/2000/svg"><path fill-rule="evenodd" clip-rule="evenodd" d="M541.97 268.3a16.936 16.936 0 0 1-16.934 16.942h-73.629a16.958 16.958 0 0 1-12.184-4.848 16.941 16.941 0 0 1-5.078-12.09c0-4.547 1.832-8.902 5.078-12.09a16.936 16.936 0 0 1 12.184-4.844h73.629a16.919 16.919 0 0 1 11.977 4.957 16.933 16.933 0 0 1 4.957 11.973ZM417.93 163.48l63.828-36.832v-.004a16.94 16.94 0 0 1 16.723.274 16.935 16.935 0 0 1 8.328 14.508 16.923 16.923 0 0 1-8.191 14.582l-63.828 36.84a16.946 16.946 0 0 1-23.547-6.004 16.93 16.93 0 0 1-1.594-13.098 16.925 16.925 0 0 1 8.281-10.266Zm-6.742-104.87h-.004a16.957 16.957 0 0 0-.012-16.957 16.95 16.95 0 0 0-14.695-8.465 16.946 16.946 0 0 0-14.676 8.488l-36.812 63.793a16.94 16.94 0 0 0 29.344 16.935l36.82-63.793.035-.001Zm96.023 346.84a16.964 16.964 0 0 1-10.289 7.887 16.965 16.965 0 0 1-12.852-1.688l-63.828-36.852a16.925 16.925 0 0 1-8.469-14.664 16.93 16.93 0 0 1 8.465-14.664 16.924 16.924 0 0 1 16.934 0L501 382.313a16.944 16.944 0 0 1 6.203 23.137h.008Zm-380.72-56.656a16.937 16.937 0 0 1-6.192 23.133l-63.828 36.871a16.947 16.947 0 0 1-16.94.012 16.946 16.946 0 0 1-8.481-14.664 16.949 16.949 0 0 1 8.46-14.68l63.856-36.871a16.954 16.954 0 0 1 12.848-1.692c4.336 1.164 8.031 4 10.277 7.891Zm-35.875-65.703H16.97a16.933 16.933 0 0 1-14.402-8.559 16.93 16.93 0 0 1 0-16.754 16.943 16.943 0 0 1 14.402-8.558h73.645a16.948 16.948 0 0 1 14.402 8.558 16.939 16.939 0 0 1-14.402 25.313Zm40.242-97.402h-.004a16.931 16.931 0 0 1-23.14 6.207l-63.828-36.84h.004a16.947 16.947 0 0 1-8.465-14.68 16.953 16.953 0 0 1 8.484-14.668 16.942 16.942 0 0 1 16.945.012l63.828 36.84a16.939 16.939 0 0 1 6.204 23.129h-.028Zm37.066-63.402a16.933 16.933 0 1 0 29.324-16.938L160.42 41.54a16.928 16.928 0 0 0-10.285-8.207 16.932 16.932 0 0 0-21.004 12.113 16.93 16.93 0 0 0 1.953 13.012l36.84 63.829Zm103.08-14.301a16.944 16.944 0 0 1-16.946-16.93V17.415c0-6.05 3.231-11.641 8.469-14.668a16.955 16.955 0 0 1 16.941 0 16.945 16.945 0 0 1 8.469 14.668v73.641a16.961 16.961 0 0 1-4.961 11.969 16.93 16.93 0 0 1-11.973 4.961h.001Zm69.754 95.215a93.017 93.017 0 0 1 26.914 74.75 16.93 16.93 0 0 1-16.86 15.535c-.468 0-.937 0-1.414-.054a16.943 16.943 0 0 1-15.488-18.274 59.166 59.166 0 0 0-17.113-48.016 64.227 64.227 0 0 0-29.414-16.758 16.936 16.936 0 0 1-12.237-20.636 16.942 16.942 0 0 1 20.667-12.176 98.132 98.132 0 0 1 44.945 25.629Zm6.359 147.75c40.945-47.926 41.355-114.57.903-155.02a109.075 109.075 0 0 0-154.054 0c-40.441 40.457-40.062 107.1.902 155.02l8.16 9.551a62.293 62.293 0 0 1 14.902 33.492h106.13a62.257 62.257 0 0 1 14.902-33.492l8.152-9.551h.003Zm-50.902 144.68h-49.027c-5.527-.086-9.992-4.547-10.078-10.074v-7.328h69.191v7.348-.004a10.238 10.238 0 0 1-10.086 10.059v-.001Zm27.336-67.785v16.492h-105.12v-16.473l105.12-.019Zm48.418-255.87h.004a143.166 143.166 0 0 0-201.94 0 136.942 136.942 0 0 0-40.191 99.855 160.5 160.5 0 0 0 39.289 101.12l8.149 9.543a28.811 28.811 0 0 1 7.281 19.723v43.316a32.748 32.748 0 0 0 5.062 17.465 32.72 32.72 0 0 0 13.602 12.07v10.508a44.008 44.008 0 0 0 12.887 31.074 43.985 43.985 0 0 0 31.07 12.883h49.027a43.998 43.998 0 0 0 43.957-43.957v-11.23a32.707 32.707 0 0 0 17.258-28.812v-43.301a28.804 28.804 0 0 1 7.281-19.719l8.16-9.543a160.526 160.526 0 0 0 39.289-101.12 136.885 136.885 0 0 0-40.176-99.855l-.009-.02Z" fill="#000"/></svg>

<svg width="542" height="530" viewBox="0 0 542 530" fill="none" xmlns="http://www.w3.org/2000/svg">
<path fill-rule="evenodd" clip-rule="evenodd" d="M541.97 268.3C541.97 272.792 540.189 277.101 537.013 280.277C533.837 283.457 529.529 285.242 525.036 285.242H451.407C446.856 285.324 442.47 283.578 439.223 280.394C435.977 277.21 434.145 272.851 434.145 268.304C434.145 263.757 435.977 259.402 439.223 256.214C442.469 253.03 446.856 251.284 451.407 251.37H525.036C529.528 251.366 533.837 253.151 537.013 256.327C540.189 259.503 541.97 263.812 541.97 268.3V268.3ZM417.93 163.48L481.758 126.648V126.644C486.992 123.785 493.344 123.89 498.481 126.918C503.618 129.949 506.782 135.461 506.809 141.426C506.84 147.39 503.727 152.93 498.618 156.008L434.79 192.848C430.887 195.238 426.184 195.953 421.747 194.82C417.309 193.691 413.52 190.812 411.243 186.844C408.962 182.871 408.387 178.148 409.649 173.746C410.907 169.347 413.895 165.64 417.93 163.48L417.93 163.48ZM411.188 58.61H411.184C414.211 53.36 414.203 46.895 411.172 41.653C408.137 36.4069 402.536 33.1803 396.477 33.1882C390.419 33.1921 384.825 36.4265 381.801 41.6765L344.989 105.469C341.966 110.712 341.97 117.168 344.993 122.407C348.02 127.65 353.614 130.876 359.665 130.876C365.72 130.872 371.31 127.642 374.333 122.404L411.153 58.6106L411.188 58.61ZM507.211 405.45C504.961 409.337 501.262 412.173 496.922 413.337C492.582 414.497 487.961 413.891 484.07 411.649L420.242 374.797C415 371.774 411.773 366.184 411.773 360.133C411.773 354.082 415 348.492 420.238 345.469C425.48 342.442 431.933 342.442 437.172 345.469L501 382.313C504.89 384.559 507.726 388.258 508.89 392.598C510.055 396.934 509.445 401.559 507.203 405.45L507.211 405.45ZM126.491 348.794C128.737 352.681 129.346 357.302 128.186 361.642C127.026 365.982 124.19 369.681 120.299 371.927L56.4714 408.798C51.2331 411.825 44.7764 411.833 39.5304 408.81C34.2882 405.786 31.0538 400.196 31.0499 394.146C31.046 388.091 34.2726 382.498 39.5108 379.466L103.366 342.595C107.256 340.352 111.878 339.743 116.214 340.903C120.55 342.067 124.245 344.903 126.491 348.794V348.794ZM90.6158 283.091H16.9708C10.9981 282.978 5.52182 279.728 2.56882 274.532C-0.388176 269.341 -0.388176 262.973 2.56882 257.778C5.52192 252.587 10.9985 249.333 16.9708 249.22H90.6158C96.5885 249.333 102.061 252.587 105.018 257.778C107.971 262.974 107.971 269.34 105.018 274.532C102.061 279.728 96.5881 282.978 90.6158 283.091ZM130.858 185.689H130.854C128.612 189.583 124.913 192.423 120.573 193.587C116.233 194.751 111.608 194.146 107.714 191.896L43.8859 155.056H43.8898C38.6476 152.025 35.421 146.427 35.425 140.376C35.4328 134.321 38.6672 128.728 43.9094 125.708C49.1555 122.685 55.6164 122.688 60.8544 125.72L124.682 162.56C128.573 164.806 131.409 168.501 132.573 172.841C133.737 177.177 133.128 181.798 130.886 185.689L130.858 185.689ZM167.924 122.287C170.951 127.525 176.541 130.752 182.588 130.752C188.639 130.752 194.229 127.521 197.252 122.283C200.275 117.041 200.275 110.588 197.248 105.349L160.42 41.54C158.24 37.5283 154.529 34.5712 150.135 33.333C145.744 32.0947 141.033 32.6806 137.08 34.9619C133.127 37.2431 130.26 41.0244 129.131 45.4459C128.002 49.8717 128.705 54.5631 131.084 58.4579L167.924 122.287ZM271.004 107.986C266.512 107.986 262.203 106.205 259.027 103.029C255.847 99.8532 254.062 95.5446 254.058 91.056V17.415C254.058 11.3642 257.289 5.77398 262.527 2.74698C267.769 -0.276419 274.226 -0.276419 279.468 2.74698C284.706 5.77428 287.937 11.3642 287.937 17.415V91.056C287.933 95.5443 286.148 99.849 282.976 103.025C279.8 106.201 275.495 107.986 271.003 107.986L271.004 107.986ZM340.758 203.201C360.453 222.838 370.328 250.263 367.672 277.951C367.324 282.181 365.395 286.127 362.273 289.006C359.148 291.885 355.059 293.483 350.812 293.486C350.344 293.486 349.875 293.486 349.398 293.432C344.922 293.061 340.773 290.928 337.871 287.502C334.965 284.076 333.539 279.635 333.91 275.158C335.746 257.388 329.457 239.744 316.797 227.142C308.669 219.025 298.508 213.24 287.383 210.384C283.02 209.275 279.278 206.478 276.981 202.607C274.685 198.736 274.024 194.107 275.146 189.748C276.263 185.388 279.075 181.654 282.95 179.373C286.829 177.088 291.458 176.439 295.813 177.572C312.817 181.939 328.336 190.791 340.758 203.201L340.758 203.201ZM347.117 350.951C388.062 303.025 388.472 236.381 348.02 195.931C327.571 175.536 299.872 164.083 270.993 164.083C242.114 164.083 214.411 175.536 193.966 195.931C153.525 236.388 153.904 303.031 194.868 350.951L203.028 360.502C211.243 369.92 216.434 381.588 217.93 393.994H324.06C325.552 381.588 330.748 369.916 338.962 360.502L347.114 350.951H347.117ZM296.215 495.631H247.188C241.661 495.545 237.196 491.084 237.11 485.557V478.229H306.301V485.577V485.573C306.204 491.1 301.743 495.549 296.215 495.632V495.631ZM323.551 427.846V444.338H218.431V427.865L323.551 427.846ZM371.969 171.976H371.973C345.145 145.288 308.844 130.308 271.003 130.308C233.163 130.308 196.862 145.288 170.033 171.976C143.568 198.378 129.049 234.453 129.842 271.831C130.803 309.073 144.694 344.823 169.131 372.951L177.28 382.494C182.104 387.916 184.705 394.959 184.561 402.217V445.533C184.565 451.717 186.322 457.771 189.623 462.998C192.928 468.228 197.643 472.412 203.225 475.068V485.576C203.237 497.232 207.87 508.408 216.112 516.65C224.354 524.892 235.53 529.525 247.182 529.533H296.209C307.865 529.521 319.037 524.888 327.279 516.646C335.521 508.408 340.154 497.232 340.166 485.576V474.346C345.377 471.553 349.737 467.397 352.775 462.323C355.814 457.253 357.42 451.448 357.424 445.534V402.233C357.279 394.979 359.881 387.936 364.705 382.514L372.865 372.971C397.299 344.846 411.189 309.096 412.154 271.851C412.959 234.476 398.443 198.398 371.978 171.996L371.969 171.976Z" fill="black"/>
</svg>
